vendor/shopware/storefront/Resources/app/storefront/dist/assets/icon/default/paperclip.svg

<svg xmlns="http://www.w3.org/2000/svg" xmlns:xlink="http://www.w3.org/1999/xlink" width="24" height="24" viewBox="0 0 24 24">
  <defs>
    <path id="icons-default-documentation-paperclip-a" d="M8,16 L8,5.5 C8,3.56700338 9.56700338,2 11.5,2 C13.4329966,2 15,3.56700338 15,5.5 L15,20.0293555 C15,21.1339421 14.1045557,22.0293864 12.9999692,22.0293864 C11.8953826,22.0293864 10.9999383,21.1339421 10.9999383,20.0293555 L10.9999383,5.46180886 C10.9999383,5.18559878 11.2238508,4.96168627 11.5000609,4.96168627 C11.776271,4.96168627 12.0001835,5.18559878 12.0001835,5.46180886 L12.0001835,16.055172 C12.0001835,16.6074567 12.4478987,17.055172 13.0001835,17.055172 C13.5524682,17.055172 14.0001835,16.6074567 14.0001835,16.055172 L14.0001835,5.46180886 C14.0001835,4.08102928 12.8808405,2.96168627 11.5000609,2.96168627 C10.1192813,2.96168627 8.99993832,4.08102928 8.99993832,5.46180886 L8.99993832,20.0293555 C8.99993832,22.2385116 10.7908131,24.0293864 12.9999692,24.0293864 C15.2091252,24.0293864 17,22.2385116 17,20.0293555 L17,5.5 C17,2.46243388 14.5375661,-5.92118946e-16 11.5,2.66453526e-15 C8.46243388,5.92118946e-15 6,2.46243388 6,5.5 L6,16 C6,16.5522847 6.44771525,17 7,17 C7.55228475,17 8,16.5522847 8,16 Z"/>
  </defs>
  <use fill="#758CA3" fill-rule="evenodd" xlink:href="#icons-default-documentation-paperclip-a"/>
</svg>

<svg xmlns="http://www.w3.org/2000/svg" xmlns:xlink="http://www.w3.org/1999/xlink" width="24" height="24" viewBox="0 0 24 24"><defs><path id="icons-default-documentation-paperclip-a" d="M8 16V5.5C8 3.567 9.567 2 11.5 2S15 3.567 15 5.5v14.5294c0 1.1045-.8954 2-2 2s-2-.8955-2-2V5.4618a.5001.5001 0 1 1 1.0002 0v10.5934c0 .5523.4477 1 1 1s1-.4477 1-1V5.4618c0-1.3808-1.1194-2.5001-2.5001-2.5001-1.3808 0-2.5002 1.1193-2.5002 2.5001v14.5676c0 2.2091 1.791 4 4 4 2.2092 0 4.0001-1.7909 4.0001-4V5.5C17 2.4624 14.5376 0 11.5 0S6 2.4624 6 5.5V16c0 .5523.4477 1 1 1s1-.4477 1-1z"/></defs><use fill="#758CA3" fill-rule="evenodd" xlink:href="#icons-default-documentation-paperclip-a"/></svg>
